svg/fluentui-system-icons/ic_fluent_app_generic_20_regular.svg

<svg width="20" height="20" viewBox="0 0 20 20" fill="none" xmlns="http://www.w3.org/2000/svg">
<path d="M3 5.5C3 4.11929 4.11929 3 5.5 3H14.5C15.8807 3 17 4.11929 17 5.5V14.5C17 15.8807 15.8807 17 14.5 17H5.5C4.11929 17 3 15.8807 3 14.5V5.5ZM5.5 4C4.67157 4 4 4.67157 4 5.5V6H16V5.5C16 4.67157 15.3284 4 14.5 4H5.5ZM16 7H4V14.5C4 15.3284 4.67157 16 5.5 16H14.5C15.3284 16 16 15.3284 16 14.5V7ZM5 9C5 8.44771 5.44772 8 6 8H8C8.55228 8 9 8.44772 9 9V14C9 14.5523 8.55228 15 8 15H6C5.44772 15 5 14.5523 5 14V9ZM8 9H6V14H8V9ZM10 10.5C10 10.2239 10.2239 10 10.5 10H13.5C13.7761 10 14 10.2239 14 10.5C14 10.7761 13.7761 11 13.5 11H10.5C10.2239 11 10 10.7761 10 10.5ZM10.5 8C10.2239 8 10 8.22386 10 8.5C10 8.77614 10.2239 9 10.5 9H14.5C14.7761 9 15 8.77614 15 8.5C15 8.22386 14.7761 8 14.5 8H10.5Z" fill="#212121"/>
</svg>

<svg xmlns="http://www.w3.org/2000/svg" width="20" height="20"><path d="M3 5.5A2.5 2.5 0 0 1 5.5 3h9A2.5 2.5 0 0 1 17 5.5v9a2.5 2.5 0 0 1-2.5 2.5h-9A2.5 2.5 0 0 1 3 14.5v-9ZM5.5 4A1.5 1.5 0 0 0 4 5.5V6h12v-.5A1.5 1.5 0 0 0 14.5 4h-9ZM16 7H4v7.5A1.5 1.5 0 0 0 5.5 16h9a1.5 1.5 0 0 0 1.5-1.5V7ZM5 9a1 1 0 0 1 1-1h2a1 1 0 0 1 1 1v5a1 1 0 0 1-1 1H6a1 1 0 0 1-1-1V9Zm3 0H6v5h2V9Zm2 1.5a.5.5 0 0 1 .5-.5h3a.5.5 0 0 1 0 1h-3a.5.5 0 0 1-.5-.5Zm.5-2.5a.5.5 0 0 0 0 1h4a.5.5 0 0 0 0-1h-4Z"/></svg>
